icons/1_Primary/Pixelfed.svg

<svg xmlns="http://www.w3.org/2000/svg" width="1024" height="1024" fill="none">
   <g clip-path="url(#a)">
      <path fill="#FF837D" d="M512 1024c282.77 0 512-229.23 512-512S794.77 0 512 0 0 229.23 0 512s229.23 512 512 512Z"/>
      <path fill="#fff" d="M512 768c-141.38 0-256-114.62-256-256s114.62-256 256-256 256 114.62 256 256-114.62 256-256 256Zm-20.32-200.11h47c44.24 0 80.1-34.91 80.1-78s-35.86-78-80.1-78h-67.82c-25.52 0-46.21 20.14-46.21 45V632l67.03-64.11Z"/>
   </g>
   <defs>
      <clipPath id="a">
         <path fill="#fff" d="M0 0h1024v1024H0z"/>
      </clipPath>
   </defs>
</svg>

<svg width="1024" height="1024" viewBox="0 0 1024 1024" fill="none" xmlns="http://www.w3.org/2000/svg">
<g clip-path="url(#clip0_2_3144)">
<path d="M512 1024C794.77 1024 1024 794.77 1024 512C1024 229.23 794.77 0 512 0C229.23 0 0 229.23 0 512C0 794.77 229.23 1024 512 1024Z" fill="#FF837D"/>
<path d="M512 768C370.62 768 256 653.38 256 512C256 370.62 370.62 256 512 256C653.38 256 768 370.62 768 512C768 653.38 653.38 768 512 768ZM491.68 567.89H538.68C582.92 567.89 618.78 532.98 618.78 489.89C618.78 446.8 582.92 411.89 538.68 411.89H470.86C445.34 411.89 424.65 432.03 424.65 456.89V632L491.68 567.89Z" fill="white"/>
</g>
<defs>
<clipPath id="clip0_2_3144">
<rect width="1024" height="1024" fill="white"/>
</clipPath>
</defs>
</svg>
